X:56
T:Jeanie's Doll is Dressed Again
R:Strathspey
C:J. Scott Skinner
S:MacDonald - Skye Collection
N:pg.146
M:C
L:1/8
K:F
B|A<c c>B A<F F2|B<d d>c B<G G2|A<c c>B A<F F>A|G<E C>E F2F:|
b|a/b/c' d'/c'/=b (c'>f)f>f|(e/f/g a/g/^f g>cc>b|a/b/c' d'/c'/=b c'>fa>f|
g<e c>e f2 f>b|a/b/c' d'/c'/=b c'>ff>f|e/f/g b/g/^f g>cc>b|a/b/c' b/a/g (3d'c'b
(3agf|
(3edc (3BAG (F2 F)||
